X:465
T:Mellem Kagel og ae Vaeg
C:Traditional Danish
L:1/8
M:2/4
S:Colin Hume's website,  colinhume.com  - chords can also be printed below the stave.
%%MIDI gchord fzcz
Q:1/2=88
K:D
P:A
|: za | "D"d'2 a2 | "/"fg af | "D"df "A7"ec | "D"d2 A2 | "D"d2 FA | "A7"AG FE | "D"E2 D2 | "/"D2 :|
P:B
|: z2 | "D"f2 ed | "A7"cc cc | "A7"cA Bc | "D"d2 A2 | "D"f2 ed | "A7"cc cc | "A7"cA Bc | "D"d2 :|
P:C
|: FG | "D"A2 FA | "/"d2 FA | "A7"GF EG | "/"B2 AG | "D"F2 DF | "A7"A2 GE | "D"E2 D2 | "/"D2 :|

